svgs/light/circle-phone-flip.svg

<svg xmlns="http://www.w3.org/2000/svg" viewBox="0 0 512 512"><!--! Font Awesome Pro 6.3.0 by @fontawesome - https://fontawesome.com License - https://fontawesome.com/license (Commercial License) Copyright 2023 Fonticons, Inc. --><path d="M363.1 131.2l-44.19-10.25c-17.52-3.984-35.44 5-42.58 21.52L255.8 190.3c-6.562 15.34-2.312 32.78 10.55 43.41l8.266 6.781C265.5 253.9 253.9 265.5 240.4 274.7L233.7 266.5C223.4 253.9 205.6 249.4 190.4 255.8L142.5 276.3c-.0156 .0156 .0313-.0156 0 0c-16.47 7.172-25.55 25.06-21.54 42.56l10.2 44.28C135.1 380.1 150 392 167.5 392C291.3 392 392 291.3 392 167.5C392 149.1 380.1 135.1 363.1 131.2zM167.5 360c-2.5 0-4.562-1.625-5.125-4.062L152.1 311.7c-.5625-2.438 .7187-4.969 3.047-6l47.66-20.44C204.9 284.4 207.5 285 208.9 286.7l15.58 19.02c4.859 5.906 13.25 7.594 20.03 3.906c27.59-15.03 50.13-37.55 65.13-65.13c3.672-6.75 2.031-15.16-3.906-20.03l-18.98-15.56c-1.844-1.516-2.406-3.875-1.453-6.109l20.44-47.7C306.5 153.2 308.5 152 310.5 152c.375 0 .75 .0469 1.125 .1406l44.25 10.27C358.4 162.1 360 165 360 167.5C360 273.6 273.6 360 167.5 360zM256 0c-141.4 0-256 114.6-256 256c0 141.4 114.6 256 256 256s256-114.6 256-256C512 114.6 397.4 0 256 0zM256 480c-123.5 0-224-100.5-224-224s100.5-224 224-224s224 100.5 224 224S379.5 480 256 480z"/></svg>

<svg xmlns="http://www.w3.org/2000/svg" viewBox="0 0 512 512"><!-- Font Awesome Pro 6.0.0-alpha2 by @fontawesome - https://fontawesome.com License - https://fontawesome.com/license (Commercial License) --><path d="M256 16C123.451 16 16 123.451 16 256S123.451 496 256 496S496 388.549 496 256S388.549 16 256 16ZM256 464C141.309 464 48 370.691 48 256S141.309 48 256 48S464 141.309 464 256S370.691 464 256 464ZM363.062 131.203L318.875 120.953C301.359 116.969 283.437 125.953 276.297 142.469L255.828 190.25C249.266 205.594 253.516 223.031 266.375 233.656L274.641 240.438C265.453 253.906 253.859 265.5 240.375 274.688L233.656 266.5C223.375 253.891 205.578 249.422 190.406 255.75L142.547 276.266C142.531 276.281 142.469 276.281 142.437 276.297C125.969 283.469 116.937 301.344 120.953 318.844L131.156 363.125C135.078 380.125 150.016 392 167.469 392C291.281 392 392 291.281 392 167.469C392 149.984 380.094 135.078 363.062 131.203ZM167.469 360C164.969 360 162.906 358.375 162.344 355.938L152.141 311.656C151.578 309.219 152.859 306.688 155.187 305.656L202.844 285.219C204.875 284.406 207.453 285 208.859 286.734L224.438 305.75C229.297 311.656 237.688 313.344 244.469 309.656C272.063 294.625 294.594 272.109 309.594 244.531C313.266 237.781 311.625 229.375 305.688 224.5L286.703 208.938C284.859 207.422 284.297 205.062 285.25 202.828L305.688 155.125C306.516 153.234 308.469 152 310.531 152C310.906 152 311.281 152.047 311.656 152.141L355.906 162.406C358.375 162.969 360 165 360 167.469C360 273.625 273.625 360 167.469 360Z"/></svg>
